X:12201
T:O'Neill's March
M:C|
L:1/8
K:Em
|: "Em"B2 g2 "D"f2 a2 | "Em"B2 g2 gfed |\
"G"B2 g2 "Bm"f2 a2 | "Em"B2 g2 gfed :|\
"Em"e2 e2 "Bm"fedB | "Em"e2 e2 "Bm"fedB |\
"Em"e2 e2 "Bm"fedB | "Em"e2 de "Bm"fedB |:\
"Am"A2 AB "G"G2 AB | "Am"A2 e2 edBG |\
"Am"A2 AB "G"G2 AB | "Am"A2 e2 edBG :| "Am"A4 ||
